SVG/rouble.svg

<?xml version="1.0" encoding="utf-8"?>
<!-- Generated by IcoMoon.io -->
<!DOCTYPE svg PUBLIC "-//W3C//DTD SVG 1.1//EN" "http://www.w3.org/Graphics/SVG/1.1/DTD/svg11.dtd">
<svg version="1.1" xmlns="http://www.w3.org/2000/svg" xmlns:xlink="http://www.w3.org/1999/xlink" width="10" height="14" viewBox="0 0 10 14">
<path fill="#444444" d="M8.148 4.414q0-0.781-0.508-1.266t-1.336-0.484h-2.5v3.5h2.5q0.828 0 1.336-0.484t0.508-1.266zM10 4.414q0 1.508-0.988 2.461t-2.551 0.953h-2.656v0.922h3.945q0.109 0 0.18 0.070t0.070 0.18v1q0 0.109-0.070 0.18t-0.18 0.070h-3.945v1.5q0 0.109-0.074 0.18t-0.176 0.070h-1.305q-0.109 0-0.18-0.070t-0.070-0.18v-1.5h-1.75q-0.109 0-0.18-0.070t-0.070-0.18v-1q0-0.109 0.070-0.18t0.18-0.070h1.75v-0.922h-1.75q-0.109 0-0.18-0.070t-0.070-0.18v-1.164q0-0.102 0.070-0.176t0.18-0.074h1.75v-4.914q0-0.109 0.070-0.18t0.18-0.070h4.211q1.563 0 2.551 0.953t0.988 2.461z"></path>
</svg>

<svg xmlns="http://www.w3.org/2000/svg" viewBox="0 0 10 14"><path d="M8.148 4.414q0-.78-.508-1.266t-1.336-.484h-2.5v3.5h2.5q.828 0 1.336-.484t.508-1.266zm1.852 0q0 1.508-.988 2.46t-2.55.954H3.804v.922H7.75q.11 0 .18.07T8 9v1q0 .11-.07.18t-.18.07H3.805v1.5q0 .11-.074.18t-.175.07H2.25q-.11 0-.18-.07T2 11.75v-1.5H.25q-.11 0-.18-.07T0 10V9q0-.11.07-.18t.18-.07H2v-.922H.25q-.11 0-.18-.07T0 7.578V6.414q0-.102.07-.176t.18-.074H2V1.25q0-.11.07-.18T2.25 1h4.21q1.564 0 2.552.953T10 4.413z" /></svg>
